src/lib/packages/icons/src/assets/line/file-export-alt.svg

<svg xmlns="http://www.w3.org/2000/svg" width="24" height="24" fill="none"><path fill="currentColor" d="M16.854 19.557c-.341.466-.947.693-1.854.693H6c-1.577 0-2.25-.673-2.25-2.25V6c0-1.577.673-2.25 2.25-2.25h5.25V6c0 2.418 1.332 3.75 3.75 3.75h2.25V12a.75.75 0 0 0 1.5 0V9a.747.747 0 0 0-.22-.53l-6-6a.749.749 0 0 0-.53-.22H6C3.582 2.25 2.25 3.582 2.25 6v12c0 2.418 1.332 3.75 3.75 3.75h9c1.399 0 2.43-.439 3.065-1.307a.75.75 0 0 0-1.211-.886ZM12.75 6V4.811l3.439 3.439H15c-1.577 0-2.25-.673-2.25-2.25Zm9.78 10.53-2 2a.748.748 0 0 1-1.06 0 .75.75 0 0 1 0-1.061l.72-.72H13a.75.75 0 0 1 0-1.5h7.189l-.72-.72a.75.75 0 1 1 1.061-1.061l2 2a.749.749 0 0 1 .162.817.743.743 0 0 1-.162.245Z"/></svg>

<svg width="24" height="24" viewBox="0 0 24 24" fill="none" xmlns="http://www.w3.org/2000/svg">
<path d="M16.854 19.557C16.513 20.023 15.907 20.25 15 20.25H6C4.423 20.25 3.75 19.577 3.75 18V6C3.75 4.423 4.423 3.75 6 3.75H11.25V6C11.25 8.418 12.582 9.75 15 9.75H17.25V12C17.25 12.414 17.586 12.75 18 12.75C18.414 12.75 18.75 12.414 18.75 12V9C18.75 8.801 18.671 8.61 18.53 8.47L12.53 2.47C12.389 2.329 12.199 2.25 12 2.25H6C3.582 2.25 2.25 3.582 2.25 6V18C2.25 20.418 3.582 21.75 6 21.75H15C16.399 21.75 17.4309 21.311 18.0649 20.443C18.3089 20.109 18.2371 19.64 17.9031 19.395C17.5671 19.149 17.099 19.224 16.854 19.557ZM12.75 6V4.811L16.189 8.25H15C13.423 8.25 12.75 7.577 12.75 6ZM22.53 16.53L20.53 18.53C20.384 18.676 20.192 18.75 20 18.75C19.808 18.75 19.616 18.677 19.47 18.53C19.177 18.237 19.177 17.762 19.47 17.469L20.1899 16.749H13C12.586 16.749 12.25 16.413 12.25 15.999C12.25 15.585 12.586 15.249 13 15.249H20.189L19.469 14.529C19.176 14.236 19.176 13.761 19.469 13.468C19.762 13.175 20.237 13.175 20.53 13.468L22.53 15.468C22.599 15.537 22.6539 15.62 22.6919 15.712C22.7679 15.895 22.7679 16.102 22.6919 16.285C22.6539 16.378 22.599 16.461 22.53 16.53Z" fill="currentColor"/>
</svg>
